assets/img/cam.svg

<svg width="297" height="312" viewBox="0 0 297 312" fill="none" xmlns="http://www.w3.org/2000/svg">
<path d="M67.7395 176.544C67.797 174.909 68.2543 173.314 69.072 171.897C69.8896 170.48 71.0429 169.286 72.4296 168.418C72.7505 168.174 73.1425 168.048 73.478 167.833C73.8134 167.619 74.2179 167.516 74.605 167.398C74.9921 167.28 75.236 167.191 76.0232 167.007L85.9188 164.512C91.1588 163.15 96.3571 161.676 101.568 160.225L148.619 147.237L171.96 140.854C189.981 135.921 208.111 131.337 226.2 126.62L243.72 122.053L244.811 121.778C245.158 121.69 245.602 121.578 245.834 121.52C246.382 121.38 246.941 121.285 247.504 121.236C248.627 121.107 249.762 121.143 250.873 121.344C251.991 121.537 253.078 121.876 254.107 122.353C255.13 122.854 256.089 123.477 256.961 124.21C258.694 125.715 259.981 127.666 260.685 129.852L260.791 130.269C260.826 130.411 260.857 130.533 260.907 130.732L261.737 134.022L262.888 138.399L271.667 171.866C273.103 177.292 274.714 182.654 276.239 188.051C279.718 200.336 282.944 212.699 286.403 224.982L287.071 227.335L287.409 228.508C287.509 228.907 287.585 229.208 287.676 229.568C287.835 230.263 287.948 230.967 288.016 231.676C288.058 232.388 288.053 233.101 288 233.812C287.954 234.526 287.857 235.236 287.709 235.936C287.542 236.639 287.329 237.33 287.069 238.004C286.562 239.373 285.845 240.656 284.945 241.806C283.128 244.167 280.642 245.924 277.811 246.851C277.136 247.103 276.293 247.308 275.522 247.53L273.172 248.184L268.454 249.476C255.994 252.856 243.446 255.671 230.896 258.671C218.347 261.67 206.002 265.267 193.55 268.543L155.704 278.357C143.147 281.627 130.617 284.982 118.112 288.421L108.738 291.003C107.186 291.499 105.592 291.855 103.976 292.067C102.341 292.251 100.688 292.184 99.0732 291.867C97.4401 291.574 95.8607 291.037 94.3871 290.274C92.894 289.52 91.5206 288.549 90.3118 287.393C87.8578 285.038 86.0985 282.053 85.2259 278.766L82.4122 269.908L81.6471 267.442C81.4801 266.684 81.2493 265.942 80.9578 265.224C80.8435 265.071 80.6966 264.946 80.5276 264.857C80.3587 264.768 80.1719 264.719 79.9812 264.712C79.1388 264.596 78.6524 265.73 78.9956 267.01L81.2978 275.492L82.4552 279.731L82.5897 280.264L82.7843 280.898L83.1848 282.164C83.3319 282.585 83.5325 282.999 83.7021 283.401C83.8695 283.819 84.0612 284.227 84.2764 284.623C85.1212 286.233 86.1687 287.728 87.3934 289.072C88.6261 290.396 90.0257 291.555 91.5566 292.519C91.9332 292.768 92.3237 292.996 92.7263 293.201C93.1269 293.408 93.5174 293.63 93.9276 293.821C94.7525 294.187 95.5993 294.504 96.4627 294.767C98.1858 295.304 99.9729 295.61 101.777 295.676C102.681 295.709 103.586 295.677 104.486 295.581C105.371 295.504 106.249 295.363 107.113 295.158C107.582 295.039 107.903 294.958 108.263 294.868L120.002 291.908C125.703 290.503 131.412 289.16 137.13 287.878C142.954 286.58 148.789 285.328 154.648 283.899L207.348 271.01C219.143 268.137 230.958 265.302 242.791 262.506L260.644 258.347L277.001 254.674C278.042 254.412 278.865 254.286 280.362 253.827C281.036 253.638 281.697 253.406 282.34 253.13L283.305 252.73C283.621 252.575 283.908 252.414 284.236 252.249C287.799 250.392 290.807 247.624 292.951 244.226C295.096 240.829 296.301 236.922 296.444 232.907C296.485 231.94 296.458 230.972 296.363 230.009C296.313 229.537 296.286 229.051 296.201 228.581L295.93 227.179L295.38 224.995C295.218 224.353 295.044 223.665 294.876 222.997C294.207 220.343 293.543 217.708 292.877 215.067C290.219 204.523 287.559 193.973 284.767 182.191C281.974 170.409 279.061 158.692 276.131 146.959L271.271 127.682L271.045 126.919C270.915 126.405 270.741 125.902 270.56 125.401L269.941 123.924C269.737 123.431 269.502 122.951 269.238 122.488C268.976 122.021 268.732 121.543 268.442 121.096C265.57 116.548 261.236 113.113 256.153 111.354C253.009 110.276 249.671 109.885 246.364 110.207L245.127 110.34L243.915 110.578L242.734 110.827L238.468 111.903L224.856 115.458L197.649 122.692L148.601 135.918L99.4282 149.352L75.0248 156.078L73.3287 156.506C73.0267 156.582 72.8014 156.639 72.4351 156.731L71.4056 157.066C70.7191 157.284 70.0487 157.549 69.3984 157.859C68.7395 158.151 68.1004 158.486 67.4848 158.861C65.0008 160.324 62.8686 162.314 61.2394 164.692C59.6282 167.039 58.5562 169.713 58.1011 172.522C57.6492 175.268 57.8303 178.082 58.6302 180.747L58.7712 181.306L58.9325 181.785C59.0473 182.104 59.1591 182.411 59.2755 182.764C59.5082 183.389 59.7648 184.083 60.0409 184.718C60.5025 185.908 61.1926 186.997 62.0722 187.923C63.0693 188.926 64.1546 189.837 65.3147 190.646C66.1869 191.205 67.2344 191.699 67.9822 191.115C68.9547 190.364 68.9649 188.208 68.8812 186.548C68.7423 184.575 68.476 182.613 68.0838 180.674L67.791 179.189L67.663 178.682L67.5948 178.22C67.5158 177.622 67.4893 177.018 67.5156 176.416L67.7395 176.544Z" fill="#6E3CBE"/>
<path d="M65.7775 262.586L64.7416 263.599L63.6824 264.549C62.8723 265.293 62.0462 266.028 61.2489 266.796C59.6495 268.313 58.0744 269.872 56.5942 271.509C55.114 273.146 53.7513 274.843 52.3949 276.538L46.4052 284.062L43.0397 288.197L42.8618 288.413L42.8333 288.462L42.7181 288.682C42.6339 288.845 42.5413 289.002 42.4409 289.155C42.2615 289.446 42.051 289.752 41.8154 290.092L41.4292 290.62L41.2191 290.898L41.1118 291.041L41.0171 291.127L40.8821 290.888C40.6597 290.469 40.4615 290.037 40.2893 289.595L39.9922 288.795L39.8353 288.363L39.7705 288.106L39.5702 287.473L36.391 276.924C35.0256 272.402 33.7925 267.942 32.6649 263.361C31.5373 258.779 30.3238 254.076 29.0402 249.472L27.2841 243.184C26.6772 241.048 25.8684 238.976 25.1636 236.885C23.5229 232.111 22.1227 227.263 20.4708 222.5C18.7881 217.641 16.9401 212.832 15.4294 207.923C13.9186 203.014 12.9481 198.079 11.9033 193.094C11.7413 192.451 11.6322 191.857 11.4767 191.24L11.0312 189.473C10.7818 188.483 10.4825 187.486 10.1815 186.454L9.24922 183.273L8.78674 181.626L8.41421 180.148L8.45876 180.137L8.55203 180.155C10.6084 180.559 12.7667 181.04 14.9487 181.563C16.0502 181.839 17.1253 182.066 18.2799 182.39L21.9979 183.367C26.9281 184.68 31.8424 186.065 36.7727 187.433C41.7031 188.8 46.589 190.289 51.6296 191.307L55.2359 192.059L56.2344 192.279C56.4804 192.333 56.8743 192.568 57.1265 192.484C57.3787 192.4 57.481 192.156 57.6411 191.815C58.011 191.113 57.8811 190.271 57.3954 190.107C48.6531 187.254 39.7726 184.585 31.0517 181.139C28.8224 180.265 26.6105 179.354 24.3124 178.642C23.1561 178.284 22.0066 177.924 20.8423 177.589L18.9963 177.043L16.1307 176.276C12.2713 175.199 8.47021 174.325 4.53869 173.342L1.62013 172.608L0.890099 172.423L0.812917 172.442L0.968413 173.059L1.2704 174.5L2.47572 180.285C3.81002 186.446 5.13684 192.612 6.45617 198.786L7.9487 205.927C8.41937 208.255 9.0176 211.713 9.71483 214.831C11.7904 224.176 14.0659 231.44 16.1799 240.694L22.6827 268.358C24.4363 275.802 26.7708 282.95 29.0636 289.985L29.3197 290.754L29.4184 291.146L29.6186 291.779L30.5135 294.704L35.6706 311.746C37.1977 310.24 38.7617 308.609 40.2678 307.075L44.7203 302.481L47.8076 299.222L50.803 295.924C51.9414 294.585 53.016 293.316 54.0998 291.977L60.4072 284.141C62.4915 281.565 64.5615 279.068 66.7071 276.6C67.9001 275.234 69.1578 273.932 70.3733 272.546L71.2739 271.512L71.7681 270.923C71.9365 270.724 72.0857 270.529 72.2348 270.334C72.8136 269.565 73.3435 268.761 73.8213 267.925C74.353 266.998 75.0693 265.909 74.6471 264.532C74.3919 263.625 74.0572 262.742 73.647 261.894C73.3039 261.113 72.7473 260.446 72.041 259.968C71.6527 259.756 71.2185 259.642 70.7763 259.634C70.334 259.627 69.8967 259.726 69.5014 259.925C68.1134 260.582 66.8744 261.515 65.8602 262.668L65.7775 262.586Z" fill="#6E3CBE"/>
<path d="M129.431 68.0574C126.758 61.5272 122.835 55.5818 117.884 50.5552C115.403 48.0966 112.684 45.8908 109.766 43.9704C101.102 38.1791 91.0834 34.7358 80.6898 33.9766C75.6221 33.622 70.5297 33.9224 65.5389 34.8709C62.6725 35.4225 59.8455 36.1627 57.0765 37.0863C54.324 38.0204 51.6381 39.1401 49.0374 40.4382C39.7346 45.116 31.8766 52.2326 26.3029 61.0279C20.7291 69.8232 17.6491 79.9671 17.3908 90.3766C17.307 93.7504 17.5328 97.1249 18.066 100.457C18.6578 103.824 19.5923 107.122 20.8547 110.299C23.5244 117.543 27.658 124.159 32.998 129.735C38.4642 135.208 44.9814 139.518 52.1568 142.407C59.1184 145.299 66.4931 147.281 74.1101 147.513C81.727 147.746 89.2399 145.75 96.0676 142.662C103.031 139.562 109.273 135.046 114.395 129.403C119.45 123.815 123.196 117.173 125.362 109.957C127.585 102.879 128.098 95.3743 126.86 88.0592C126.537 86.3434 126.142 84.6454 125.688 82.9764C125.571 82.5138 125.453 82.0446 125.285 81.595C125.224 81.154 125.093 80.7257 124.897 80.3261C124.76 80.1625 124.414 80.1196 124.012 80.1252C123.834 80.1206 123.657 80.1543 123.493 80.2248C123.329 80.2953 123.182 80.4007 123.063 80.5335C122.944 80.6662 122.854 80.8232 122.802 80.9937C122.749 81.1642 122.734 81.3444 122.758 81.5213C124.253 87.5892 124.591 93.8843 123.753 100.077C122.899 106.29 120.689 112.239 117.28 117.502C115.512 120.124 113.547 122.607 111.402 124.93C109.278 127.275 106.936 129.412 104.407 131.313C99.353 135.108 93.6 137.867 87.4772 139.435C81.3537 141.024 74.9712 141.354 68.7164 140.405C65.6047 139.926 62.5512 139.125 59.6053 138.015C55.9789 136.587 52.5318 134.741 49.3342 132.513C44.5934 129.316 40.4155 125.356 36.9698 120.793C33.5589 116.237 31.0544 111.069 29.592 105.568C28.0311 99.6945 27.57 93.5822 28.2322 87.5409C28.905 81.5148 30.7262 75.6742 33.5981 70.334C38.0779 61.9662 44.8858 55.0749 53.1988 50.4943C58.8966 47.3741 65.1702 45.4466 71.637 44.8285C72.7151 44.6865 73.8015 44.6861 74.8878 44.6036C75.9741 44.5211 77.0621 44.5544 78.1487 44.6358C82.5494 44.8077 86.9069 45.5708 91.1039 46.9051C95.338 48.2734 99.3728 50.1952 103.103 52.6208C106.851 55.0588 110.249 57.9956 113.204 61.3504C114.848 63.2363 116.347 65.2429 117.69 67.3538C119.086 69.4484 120.352 71.6238 121.655 73.8102C122.413 75.027 123.109 76.6215 124.582 77.2888C125.522 77.7621 126.494 78.1683 127.492 78.5034C128.311 78.8542 129.235 78.8669 130.063 78.5385C131.076 77.9756 131.241 76.5673 131.273 75.5C131.252 74.2224 131.072 72.9521 130.736 71.7192C130.391 70.4777 129.959 69.2622 129.443 68.0815L129.431 68.0574Z" fill="#6E3CBE"/>
<path d="M262.138 34.603C259.462 28.0747 255.54 22.13 250.591 17.1009C248.11 14.6423 245.39 12.4366 242.473 10.5162C233.809 4.72496 223.791 1.28147 213.397 0.522223C208.329 0.167636 203.237 0.468102 198.246 1.41652C195.382 1.96762 192.557 2.70726 189.79 3.63033C187.038 4.56435 184.352 5.68403 181.751 6.98233C172.448 11.6601 164.59 18.7766 159.017 27.5719C153.443 36.3672 150.363 46.5112 150.104 56.9207C150.021 60.2945 150.247 63.6689 150.78 67.0014C151.368 70.3692 152.303 73.667 153.568 76.8429C156.238 84.087 160.372 90.7033 165.712 96.2789C171.178 101.752 177.695 106.062 184.871 108.951C191.832 111.843 199.207 113.825 206.824 114.058C214.441 114.29 221.954 112.294 228.781 109.206C235.745 106.106 241.986 101.59 247.109 95.9468C252.163 90.3595 255.909 83.7172 258.075 76.5013C260.294 69.4222 260.808 61.9186 259.574 54.6033C259.251 52.8875 258.856 51.1895 258.401 49.5205C258.285 49.0579 258.135 48.5968 257.999 48.139C257.938 47.6981 257.807 47.2698 257.61 46.8702C257.473 46.7065 257.128 46.6637 256.726 46.6693C256.548 46.6646 256.371 46.6984 256.207 46.7689C256.043 46.8394 255.896 46.9448 255.777 47.0775C255.657 47.2103 255.568 47.3673 255.516 47.5378C255.463 47.7083 255.448 47.8885 255.472 48.0654C256.971 54.1327 257.308 60.4285 256.466 66.6213C255.612 72.834 253.402 78.7832 249.993 84.0466C248.225 86.6679 246.26 89.1509 244.116 91.4739C241.992 93.8189 239.65 95.956 237.121 97.8568C232.067 101.652 226.314 104.411 220.191 105.979C214.07 107.568 207.689 107.897 201.436 106.948C198.322 106.471 195.267 105.671 192.319 104.559C188.682 103.136 185.224 101.292 182.016 99.0648C177.275 95.8683 173.097 91.9081 169.651 87.3453C166.241 82.7892 163.735 77.6209 162.273 72.1205C160.712 66.2468 160.251 60.1345 160.913 54.0932C161.589 48.0677 163.41 42.2274 166.28 36.8861C170.76 28.5183 177.567 21.627 185.88 17.0465C191.578 13.9262 197.852 11.9988 204.319 11.3806C205.397 11.2387 206.483 11.2382 207.569 11.1557C208.656 11.0733 209.744 11.1065 210.83 11.1879C215.231 11.3586 219.589 12.1217 223.786 13.4573C228.02 14.8255 232.055 16.7474 235.785 19.1729C239.532 21.6109 242.93 24.5479 245.885 27.9027C247.529 29.7899 249.031 31.7956 250.378 33.9043C251.768 36.0006 253.034 38.1759 254.337 40.3623C255.094 41.5791 255.79 43.1737 257.296 43.8329C258.236 44.3062 259.208 44.7123 260.205 45.0474C261.024 45.3983 261.949 45.4109 262.777 45.0826C263.79 44.5197 263.955 43.1113 263.986 42.0441C263.966 40.7665 263.785 39.4962 263.45 38.2632C263.105 37.0218 262.673 35.8063 262.157 34.6256L262.138 34.603Z" fill="#6E3CBE"/>
</svg>

<svg width="297" height="312" fill="none" xmlns="http://www.w3.org/2000/svg"><path d="M67.74 176.544a9.999 9.999 0 0 1 4.69-8.126c.32-.244.712-.37 1.048-.585.335-.214.74-.317 1.127-.435s.631-.207 1.418-.391l9.896-2.495c5.24-1.362 10.438-2.836 15.649-4.287l47.051-12.988 23.341-6.383c18.021-4.933 36.151-9.517 54.24-14.234l17.52-4.567 1.091-.275 1.023-.258c.548-.14 1.107-.235 1.67-.284a11.531 11.531 0 0 1 3.369.108 12.91 12.91 0 0 1 3.234 1.009 14.013 14.013 0 0 1 2.854 1.857 12.577 12.577 0 0 1 3.724 5.642l.106.417.116.463.83 3.29 1.151 4.377 8.779 33.467c1.436 5.426 3.047 10.788 4.572 16.185 3.479 12.285 6.705 24.648 10.164 36.931l.668 2.353.338 1.173.267 1.06c.159.695.272 1.399.34 2.108.042.712.037 1.425-.016 2.136a14.9 14.9 0 0 1-.291 2.124c-.167.703-.38 1.394-.64 2.068a14.137 14.137 0 0 1-2.124 3.802 14.82 14.82 0 0 1-7.134 5.045c-.675.252-1.518.457-2.289.679l-2.35.654-4.718 1.292c-12.46 3.38-25.008 6.195-37.558 9.195-12.549 2.999-24.894 6.596-37.346 9.872l-37.846 9.814a2856.955 2856.955 0 0 0-37.592 10.064l-9.374 2.582a27.316 27.316 0 0 1-4.762 1.064 16.1 16.1 0 0 1-4.903-.2 16.545 16.545 0 0 1-4.686-1.593 16.955 16.955 0 0 1-4.075-2.881 18.556 18.556 0 0 1-5.086-8.627l-2.814-8.858-.765-2.466c-.167-.758-.398-1.5-.69-2.218a1.282 1.282 0 0 0-.976-.512c-.842-.116-1.329 1.018-.985 2.298l2.302 8.482 1.157 4.239.135.533.194.634.4 1.266c.148.421.349.835.518 1.237.168.418.36.826.574 1.222a21.297 21.297 0 0 0 3.117 4.449 20.92 20.92 0 0 0 4.164 3.447c.376.249.767.477 1.17.682.4.207.79.429 1.2.62.825.366 1.672.683 2.536.946 1.723.537 3.51.843 5.314.909.904.033 1.809.001 2.709-.095a18.219 18.219 0 0 0 2.627-.423l1.15-.29 11.739-2.96a834.837 834.837 0 0 1 17.128-4.03c5.824-1.298 11.659-2.55 17.518-3.979l52.7-12.889a5288.253 5288.253 0 0 1 35.443-8.504l17.853-4.159 16.357-3.673c1.041-.262 1.864-.388 3.361-.847a15.891 15.891 0 0 0 1.978-.697l.965-.4c.316-.155.603-.316.931-.481a22.72 22.72 0 0 0 12.208-19.342c.041-.967.014-1.935-.081-2.898-.05-.472-.077-.958-.162-1.428l-.271-1.402-.55-2.184-.504-1.998-1.999-7.93c-2.658-10.544-5.318-21.094-8.11-32.876-2.793-11.782-5.706-23.499-8.636-35.232l-4.86-19.277-.226-.763a16.123 16.123 0 0 0-.485-1.518l-.619-1.477a12.715 12.715 0 0 0-.703-1.436c-.262-.467-.506-.945-.796-1.392a23.7 23.7 0 0 0-12.289-9.742 23.238 23.238 0 0 0-9.789-1.147l-1.237.133-1.212.238-1.181.249-4.266 1.076-13.612 3.555-27.207 7.234-49.048 13.226-49.173 13.434-24.403 6.726-1.696.428-.894.225-1.03.335a15.79 15.79 0 0 0-2.007.793c-.658.292-1.298.627-1.913 1.002a19.67 19.67 0 0 0-6.246 5.831 19.285 19.285 0 0 0-3.138 7.83c-.452 2.746-.27 5.56.53 8.225l.14.559.161.479c.115.319.227.626.343.979.233.625.49 1.319.766 1.954a9.8 9.8 0 0 0 2.031 3.205 23.633 23.633 0 0 0 3.243 2.723c.872.559 1.92 1.053 2.667.469.973-.751.983-2.907.9-4.567a45.88 45.88 0 0 0-.798-5.874l-.293-1.485-.128-.507-.068-.462a10.334 10.334 0 0 1-.08-1.804l.225.128Zm-1.962 86.042-1.036 1.013-1.06.95c-.81.744-1.636 1.479-2.433 2.247-1.6 1.517-3.175 3.076-4.655 4.713-1.48 1.637-2.843 3.334-4.2 5.029l-5.989 7.524-3.365 4.135-.178.216-.029.049-.115.22c-.084.163-.177.32-.277.473-.18.291-.39.597-.626.937l-.386.528-.21.278-.107.143-.095.086-.135-.239c-.222-.419-.42-.851-.593-1.293l-.297-.8-.157-.432-.065-.257-.2-.633-3.179-10.549a269.287 269.287 0 0 1-3.726-13.563 472.417 472.417 0 0 0-3.625-13.889l-1.756-6.288c-.607-2.136-1.416-4.208-2.12-6.299-1.641-4.774-3.041-9.622-4.693-14.385-1.683-4.859-3.53-9.668-5.042-14.577-1.51-4.909-2.48-9.844-3.526-14.829-.162-.643-.27-1.237-.426-1.854l-.446-1.767c-.25-.99-.549-1.987-.85-3.019l-.932-3.181-.462-1.647-.373-1.478.045-.011.093.018c2.056.404 4.215.885 6.397 1.408 1.101.276 2.176.503 3.33.827l3.719.977c4.93 1.313 9.844 2.698 14.775 4.066 4.93 1.367 9.816 2.856 14.857 3.874l3.606.752.998.22c.246.054.64.289.892.205.253-.084.355-.328.515-.669.37-.702.24-1.544-.246-1.708-8.742-2.853-17.622-5.522-26.343-8.968-2.23-.874-4.442-1.785-6.74-2.497-1.156-.358-2.305-.718-3.47-1.053l-1.846-.546-2.865-.767c-3.86-1.077-7.66-1.951-11.592-2.934l-2.919-.734-.73-.185-.077.019.155.617.302 1.441 1.206 5.785a6872.81 6872.81 0 0 1 3.98 18.501l1.493 7.141c.47 2.328 1.069 5.786 1.766 8.904 2.075 9.345 4.35 16.609 6.465 25.863l6.503 27.664c1.753 7.444 4.088 14.592 6.38 21.627l.257.769.098.392.2.633.896 2.925 5.157 17.042c1.527-1.506 3.09-3.137 4.597-4.671l4.452-4.594 3.088-3.259 2.995-3.298a210.38 210.38 0 0 0 3.297-3.947l6.307-7.836a276.795 276.795 0 0 1 6.3-7.541c1.193-1.366 2.45-2.668 3.666-4.054l.9-1.034.495-.589c.168-.199.318-.394.467-.589a22.905 22.905 0 0 0 1.586-2.409c.532-.927 1.248-2.016.826-3.393-.255-.907-.59-1.79-1-2.638a4.52 4.52 0 0 0-1.606-1.926 2.743 2.743 0 0 0-2.54-.043 11.27 11.27 0 0 0-3.64 2.743l-.084-.082Zm63.653-194.529a54.204 54.204 0 0 0-11.547-17.502 52.664 52.664 0 0 0-8.118-6.585 60.215 60.215 0 0 0-29.076-9.993 59.066 59.066 0 0 0-15.151.894 66.403 66.403 0 0 0-8.462 2.215 64.193 64.193 0 0 0-8.04 3.352 57.493 57.493 0 0 0-31.646 49.939 55.134 55.134 0 0 0 .675 10.08 50.175 50.175 0 0 0 2.789 9.842 56.196 56.196 0 0 0 12.143 19.436 57.35 57.35 0 0 0 19.159 12.672c6.961 2.892 14.336 4.874 21.953 5.106 7.617.233 15.13-1.763 21.958-4.851a54.914 54.914 0 0 0 18.327-13.259 50.723 50.723 0 0 0 10.967-19.446 46.94 46.94 0 0 0 1.498-21.898 65.668 65.668 0 0 0-1.172-5.083c-.117-.462-.235-.931-.403-1.381a4.183 4.183 0 0 0-.388-1.269c-.137-.163-.483-.206-.885-.2a1.233 1.233 0 0 0-1.254 1.395 49.704 49.704 0 0 1 .995 18.556 42.764 42.764 0 0 1-6.473 17.425 62.248 62.248 0 0 1-5.878 7.428 49.85 49.85 0 0 1-6.995 6.383 48.042 48.042 0 0 1-16.93 8.122 46.765 46.765 0 0 1-18.76.97 45.453 45.453 0 0 1-9.112-2.39 50.03 50.03 0 0 1-10.27-5.502 51.75 51.75 0 0 1-12.365-11.72 44.464 44.464 0 0 1-7.378-15.225 49.283 49.283 0 0 1-1.36-18.027 47.441 47.441 0 0 1 5.366-17.207 49.125 49.125 0 0 1 19.6-19.84 47.871 47.871 0 0 1 18.439-5.666c1.078-.142 2.165-.142 3.25-.224 1.087-.083 2.175-.05 3.262.032 4.4.172 8.758.935 12.955 2.27a50.493 50.493 0 0 1 11.999 5.715 49.24 49.24 0 0 1 10.101 8.73 49.889 49.889 0 0 1 4.486 6.003c1.396 2.094 2.662 4.27 3.965 6.456.758 1.217 1.454 2.811 2.927 3.479.94.473 1.912.88 2.91 1.214a3.368 3.368 0 0 0 2.571.035c1.013-.562 1.178-1.97 1.21-3.038a15.338 15.338 0 0 0-.537-3.78 27.41 27.41 0 0 0-1.293-3.638l-.012-.025Zm132.707-33.454a54.333 54.333 0 0 0-11.547-17.502 52.711 52.711 0 0 0-8.118-6.585A60.215 60.215 0 0 0 213.397.522a59.07 59.07 0 0 0-15.151.895 66.325 66.325 0 0 0-8.456 2.213 64.2 64.2 0 0 0-8.039 3.352 57.498 57.498 0 0 0-31.647 49.938 55.229 55.229 0 0 0 .676 10.081 49.695 49.695 0 0 0 2.788 9.842 56.198 56.198 0 0 0 12.144 19.436 57.342 57.342 0 0 0 19.159 12.672c6.961 2.892 14.336 4.874 21.953 5.107 7.617.232 15.13-1.764 21.957-4.852a54.918 54.918 0 0 0 18.328-13.26 50.727 50.727 0 0 0 10.966-19.445 47.048 47.048 0 0 0 1.499-21.898 65.212 65.212 0 0 0-1.173-5.083c-.116-.462-.266-.923-.402-1.381a4.157 4.157 0 0 0-.389-1.269c-.137-.163-.482-.206-.884-.2a1.231 1.231 0 0 0-1.254 1.395 49.537 49.537 0 0 1 .994 18.556 42.769 42.769 0 0 1-6.473 17.426 62.39 62.39 0 0 1-5.877 7.427 49.838 49.838 0 0 1-6.995 6.383 48.038 48.038 0 0 1-16.93 8.122 46.735 46.735 0 0 1-18.755.969 45.235 45.235 0 0 1-9.117-2.389 50.031 50.031 0 0 1-10.303-5.494 51.746 51.746 0 0 1-12.365-11.72 44.479 44.479 0 0 1-7.378-15.224 49.287 49.287 0 0 1-1.36-18.028 47.553 47.553 0 0 1 5.367-17.207 49.124 49.124 0 0 1 19.6-19.84 47.875 47.875 0 0 1 18.439-5.665c1.078-.142 2.164-.143 3.25-.225 1.087-.083 2.175-.05 3.261.032 4.401.17 8.759.934 12.956 2.27a50.49 50.49 0 0 1 11.999 5.715 49.262 49.262 0 0 1 10.1 8.73 50.637 50.637 0 0 1 4.493 6.001c1.39 2.097 2.656 4.272 3.959 6.458.757 1.217 1.453 2.812 2.959 3.47.94.474 1.912.88 2.909 1.215a3.375 3.375 0 0 0 2.572.036c1.013-.563 1.178-1.972 1.209-3.039a15.338 15.338 0 0 0-.536-3.78 27.413 27.413 0 0 0-1.293-3.638l-.019-.023Z" fill="#6E3CBE"/></svg>
